resources/icons/16px/shared-filter.svg

<svg width="16" height="16" viewBox="0 0 16 16" fill="none" xmlns="http://www.w3.org/2000/svg">
<path fill-rule="evenodd" clip-rule="evenodd" d="M13.8429 15.1631C14.0753 15.6923 13.9811 16 13.9811 16H6.01683C6.01683 16 5.92889 15.6923 6.15502 15.1631C6.38113 14.6339 7.49286 14.2831 8.23402 13.9569C8.96889 13.6246 8.89351 13.4277 8.91864 13.1569C8.91864 13.1261 8.92492 13.0893 8.92492 13.0523C8.6674 12.8369 8.45385 12.5231 8.31567 12.16V12.1539C8.31567 12.1539 8.30938 12.1477 8.30938 12.1416C8.28426 12.0677 8.25286 11.9816 8.23402 11.9016C8.05815 11.8707 7.95765 11.68 7.91997 11.5077C7.88228 11.4339 7.80063 11.2677 7.81947 11.0707C7.84459 10.8184 7.95137 10.7016 8.06443 10.6523V10.6154C8.06443 10.3016 8.09583 9.84 8.15236 9.54461C8.16492 9.46461 8.18376 9.37846 8.20889 9.29846C8.31567 8.92923 8.54807 8.60307 8.84955 8.36923C9.1636 8.12923 9.60955 8 10.0052 8C10.401 8 10.8469 8.12923 11.161 8.36923C11.4624 8.60307 11.6948 8.92923 11.8016 9.30461C11.8267 9.38461 11.8456 9.47077 11.8581 9.55077C11.9147 9.84616 11.9461 10.3016 11.9461 10.6154V10.6584C12.0591 10.7077 12.1596 10.8246 12.1785 11.0707C12.1973 11.2677 12.1219 11.4339 12.078 11.5077C12.0403 11.68 11.9461 11.8646 11.7765 11.8954C11.7576 11.9754 11.7325 12.0554 11.7011 12.1354C11.7011 12.1416 11.6948 12.16 11.6948 12.16C11.5566 12.5169 11.3494 12.8246 11.0982 13.0523V13.1631C11.1232 13.44 11.0228 13.6369 11.7639 13.9631C12.5051 14.2893 13.6168 14.6339 13.8429 15.1631Z" fill="#10161A"/>
<path d="M14.8525 15H15.9835C15.9835 15 16.0659 14.7308 15.8626 14.2677C15.7033 13.895 15.0421 13.6269 14.4519 13.3877C14.3088 13.3297 14.1699 13.2734 14.0434 13.2177C13.4779 12.9688 13.4724 12.8059 13.4657 12.6076C13.4647 12.5785 13.4637 12.5487 13.4609 12.5177V12.4208C13.6807 12.2216 13.8621 11.9523 13.983 11.64C13.983 11.64 13.9884 11.6239 13.9884 11.6184C14.0159 11.5484 14.0379 11.4784 14.0544 11.4084C14.2028 11.3816 14.2852 11.22 14.3183 11.0692C14.3567 11.0047 14.4226 10.8592 14.4061 10.6869C14.3897 10.4716 14.3017 10.3692 14.2028 10.3261V10.2884C14.2028 10.0139 14.1753 9.61539 14.1258 9.35692C14.1149 9.28692 14.0983 9.21153 14.0764 9.14153C13.983 8.81308 13.7796 8.52769 13.5159 8.32308C13.241 8.11308 12.8508 8 12.5046 8C12.4154 8 12.3232 8.00751 12.2309 8.02225C12.4671 8.30831 12.6517 8.64492 12.7599 9.01856C12.798 9.14267 12.8251 9.26691 12.8434 9.3792C12.8913 9.63611 12.9217 9.95711 12.9361 10.2457C13.0758 10.4649 13.1534 10.7218 13.1748 10.9854C13.2082 11.3581 13.1097 11.6685 13.016 11.8698C12.9727 12.0109 12.905 12.1703 12.7992 12.3234C12.7528 12.3905 12.6944 12.4624 12.6232 12.5318C12.5433 12.7361 12.4454 12.9326 12.3305 13.1171C12.3918 13.1424 12.4603 13.1704 12.5334 13.2003C12.8184 13.3166 13.1723 13.461 13.4323 13.5869C13.6588 13.6965 13.9083 13.8325 14.1307 14.0011C14.3436 14.1624 14.6065 14.4089 14.7602 14.7648C14.7954 14.8453 14.826 14.9238 14.8525 15Z" fill="#10161A"/>
<path d="M12.1394 14.1203C12.1696 14.1326 12.2001 14.1449 12.2308 14.1574Z" fill="#10161A"/>
<path d="M11 1C11.55 1 12 1.45 12 2C12 2.28 11.89 2.53 11.71 2.7L8 6.41V7.78406C7.65898 8.11328 7.39157 8.53263 7.25139 9.00992C7.21257 9.13566 7.18538 9.26089 7.16715 9.37273C7.11977 9.62692 7.08953 9.9462 7.07489 10.2337C6.93422 10.4485 6.85114 10.7029 6.82438 10.9717L6.82401 10.9755C6.80321 11.1929 6.82978 11.3892 6.87048 11.5495L5.71 12.71C5.53 12.89 5.28 13 5 13C4.45 13 4 12.55 4 12V6.41L0.29 2.71C0.11 2.53 0 2.28 0 2C0 1.45 0.45 1 1 1H11Z" fill="#10161A"/>
</svg>

<svg xmlns="http://www.w3.org/2000/svg" viewBox="0 0 16 16">
  <path d="M13.843 15.163c.232.53.138.837.138.837H6.017s-.088-.308.138-.837c.226-.53 1.338-.88 2.079-1.206.735-.332.66-.53.685-.8 0-.03.006-.068.006-.105a2.2 2.2 0 0 1-.61-.892v-.006s-.006-.006-.006-.012c-.025-.074-.056-.16-.075-.24-.176-.031-.276-.222-.314-.394a.8.8 0 0 1-.1-.437c.025-.253.131-.37.244-.419v-.037c0-.313.032-.775.088-1.07A1.835 1.835 0 0 1 8.85 8.37c.315-.24.76-.37 1.156-.37s.842.13 1.156.37c.301.233.534.56.64.935.026.08.045.166.057.246.057.295.088.75.088 1.064v.043c.113.05.214.167.232.413a.75.75 0 0 1-.1.437c-.038.172-.132.357-.301.387a2 2 0 0 1-.076.24l-.006.025a2.35 2.35 0 0 1-.597.892v.111c.025.277-.075.474.666.8s1.853.67 2.079 1.2"/>
  <path d="M14.853 15h1.13s.083-.27-.12-.732c-.16-.373-.82-.641-1.411-.88a15 15 0 0 1-.409-.17c-.565-.25-.57-.412-.577-.61q-.001-.045-.005-.09v-.097c.22-.2.401-.469.522-.781 0 0 .005-.016.005-.022q.042-.105.066-.21c.149-.026.231-.188.264-.339a.66.66 0 0 0 .088-.382c-.016-.215-.104-.318-.203-.36v-.039c0-.274-.028-.673-.077-.931a1.598 1.598 0 0 0-.61-1.034 1.74 1.74 0 0 0-1.285-.3c.236.285.42.622.529.996.038.124.065.248.083.36.048.257.079.578.093.867a1.736 1.736 0 0 1 .08 1.624 1.7 1.7 0 0 1-.217.453 1.4 1.4 0 0 1-.176.209q-.12.307-.292.585l.202.083c.285.117.64.261.9.387.226.11.475.245.698.414.213.161.476.408.63.764q.052.12.091.235M12.14 14.12l.09.037ZM11 1c.55 0 1 .45 1 1 0 .28-.11.53-.29.7L8 6.41v1.374a2.8 2.8 0 0 0-.833 1.589 7 7 0 0 0-.092.86 1.64 1.64 0 0 0-.25.739l-.001.004c-.02.217.006.413.046.573L5.71 12.71A1.003 1.003 0 0 1 4 12V6.41L.29 2.71A1.003 1.003 0 0 1 1 1z"/>
</svg>
